;FLAVOR:Marlin
;TIME:4763
;Filament used: 3.81383m
;Layer height: 0.28
;MINX:90.808
;MINY:90.568
;MINZ:0.28
;MAXX:147.417
;MAXY:142.568
;MAXZ:64.96
;Generated with Cura_SteamEngine 5.4.0
M140 S50
M105
M190 S50
M104 S200
M105
M109 S200
M82 ;absolute extrusion mode
; Ender 3 Custom Start G-code
G92 E0 ; Reset Extruder
G28 ; Home all axes
G1 Z2.0 F3000 ; Move Z Axis up little to prevent scratching of Heat Bed
G1 X0.1 Y20 Z0.3 F5000.0 ; Move to start position
G1 X0.1 Y200.0 Z0.3 F1500.0 E15 ; Draw the first line
G1 X0.4 Y200.0 Z0.3 F5000.0 ; Move to side a little
G1 X0.4 Y20 Z0.3 F1500.0 E30 ; Draw the second line
G92 E0 ; Reset Extruder
G1 Z2.0 F3000 ; Move Z Axis up little to prevent scratching of Heat Bed
G1 X5 Y20 Z0.3 F5000.0 ; Move over to prevent blob squish
G92 E0
G92 E0
G1 F2700 E-5
;LAYER_COUNT:232
;LAYER:0
M107
G0 F6000 X102.175 Y94.343 Z0.28
;TYPE:SKIRT
G1 F2700 E0
G1 F1200 X102.822 Y93.663 E0.04371
G1 X103.58 Y92.997 E0.09069
G1 X104.366 Y92.421 E0.13607
G1 X105.199 Y91.918 E0.18138
G1 X106.075 Y91.491 E0.22675
G1 X106.984 Y91.143 E0.27208
G1 X107.922 Y90.875 E0.3175
G1 X108.877 Y90.693 E0.36277
G1 X109.828 Y90.596 E0.40728
G1 X110.302 Y90.579 E0.42937
G1 X111.14 Y90.568 E0.46839
G1 X127.078 Y90.568 E1.21053
G1 X127.96 Y90.581 E1.25161
G1 X128.932 Y90.64 E1.29695
G1 X129.895 Y90.786 E1.3423
G1 X130.843 Y91.017 E1.38774
G1 X131.699 Y91.305 E1.42979
G1 X132.655 Y91.724 E1.4784
G1 X133.508 Y92.195 E1.52377
G1 X134.315 Y92.74 E1.56911
G1 X135.07 Y93.353 E1.6144
G1 X135.77 Y94.031 E1.65977
G1 X136.39 Y94.748 E1.70391
G1 X137.212 Y95.939 E1.7713
G1 X137.578 Y96.552 E1.80454
G1 X145.708 Y110.634 E2.56169
G1 X146.049 Y111.247 E2.59436
G1 X146.481 Y112.119 E2.63967
G1 X146.836 Y113.026 E2.68502
G1 X147.1 Y113.926 E2.7287
G1 X147.298 Y114.918 E2.7758
G1 X147.4 Y115.886 E2.82112
G1 X147.417 Y116.86 E2.86648
G1 X147.348 Y117.831 E2.91181
G1 X147.194 Y118.793 E2.95718
G1 X146.955 Y119.737 E3.00252
G1 X146.643 Y120.631 E3.04661
G1 X146.028 Y121.926 E3.11336
G1 X145.591 Y122.707 E3.15504
G1 X137.674 Y136.422 E3.89243
G1 X137.204 Y137.212 E3.93523
G1 X136.667 Y138.024 E3.98056
G1 X136.06 Y138.785 E4.02589
G1 X135.389 Y139.491 E4.07124
G1 X134.658 Y140.133 E4.11655
G1 X133.871 Y140.71 E4.16199
G1 X133.038 Y141.213 E4.2073
G1 X132.164 Y141.641 E4.25261
G1 X131.255 Y141.99 E4.29795
G1 X130.318 Y142.259 E4.34334
G1 X129.362 Y142.442 E4.38867
G1 X128.41 Y142.54 E4.43323
G1 X127.927 Y142.557 E4.45574
G1 X127.082 Y142.568 E4.49509
G1 X111.004 Y142.567 E5.24375
G1 X110.268 Y142.555 E5.27802
G1 X109.296 Y142.496 E5.32336
G1 X108.333 Y142.35 E5.36872
G1 X107.385 Y142.119 E5.41415
G1 X106.529 Y141.831 E5.45621
G1 X105.573 Y141.412 E5.50481
G1 X104.72 Y140.941 E5.55018
G1 X103.913 Y140.396 E5.59553
G1 X103.158 Y139.783 E5.64081
G1 X102.459 Y139.105 E5.68616
G1 X101.822 Y138.367 E5.73155
G1 X101.26 Y137.588 E5.77628
G1 X100.648 Y136.58 E5.83119
G1 X92.528 Y122.518 E6.5873
G1 X92.189 Y121.912 E6.61963
G1 X91.754 Y121.042 E6.66493
G1 X91.421 Y120.203 E6.70696
G1 X91.124 Y119.2 E6.75567
G1 X90.933 Y118.245 E6.80102
G1 X90.827 Y117.276 E6.84641
G1 X90.808 Y116.303 E6.89172
G1 X90.875 Y115.331 E6.93709
G1 X91.027 Y114.369 E6.98244
G1 X91.264 Y113.424 E7.02781
G1 X91.584 Y112.505 E7.07312
G1 X91.962 Y111.656 E7.11639
G1 X92.2 Y111.207 E7.14005
G1 X92.619 Y110.459 E7.17998
G1 X100.657 Y96.54 E7.92841
G1 X101.03 Y95.916 E7.96226
G1 X101.567 Y95.105 E8.00756
G1 X102.175 Y94.343 E8.05295
G0 F6000 X102.465 Y94.619
G1 F1200 X103.112 Y93.939 E8.09665
G1 X103.817 Y93.319 E8.14037
G1 X104.573 Y92.763 E8.18407
G1 X105.375 Y92.277 E8.22774
G1 X106.219 Y91.864 E8.27149
G1 X107.094 Y91.527 E8.31515
G1 X107.997 Y91.268 E8.35889
G1 X108.918 Y91.091 E8.40256
G1 X109.843 Y90.996 E8.44586
G1 X110.307 Y90.979 E8.46748
G1 X111.145 Y90.968 E8.50651
G1 X127.072 Y90.968 E9.24813
G1 X127.936 Y90.98 E9.28837
G1 X128.873 Y91.036 E9.33208
G1 X129.801 Y91.175 E9.37577
G1 X130.715 Y91.396 E9.41956
G1 X131.571 Y91.684 E9.46161
G1 X132.462 Y92.074 E9.5069
G1 X133.285 Y92.527 E9.55064
G1 X134.063 Y93.051 E9.59432
G1 X134.792 Y93.641 E9.63799
G1 X135.467 Y94.293 E9.68169
G1 X136.087 Y95.01 E9.72583
G1 X136.869 Y96.144 E9.78997
G1 X137.232 Y96.752 E9.82294
G1 X145.359 Y110.829 E10.57982
G1 X145.691 Y111.425 E10.61159
G1 X146.109 Y112.265 E10.65528
G1 X146.452 Y113.139 E10.699
G1 X146.716 Y114.039 E10.74267
G1 X146.9 Y114.961 E10.78645
G1 X147 Y115.894 E10.83014
G1 X147.018 Y116.832 E10.87383
G1 X146.953 Y117.768 E10.91752
G1 X146.806 Y118.695 E10.96122
G1 X146.577 Y119.605 E11.00492
G1 X146.265 Y120.499 E11.04901
G1 X145.679 Y121.731 E11.11253
G1 X145.245 Y122.507 E11.15393
G1 X137.33 Y136.218 E11.89112
G1 X136.87 Y136.992 E11.93304
G1 X136.354 Y137.775 E11.97671
G1 X135.77 Y138.51 E12.02042
G1 X135.124 Y139.191 E12.06413
G1 X134.421 Y139.811 E12.10778
G1 X133.664 Y140.368 E12.15154
G1 X132.862 Y140.854 E12.19521
G1 X132.02 Y141.268 E12.2389
G1 X131.144 Y141.606 E12.28262
G1 X130.242 Y141.866 E12.32633
G1 X129.321 Y142.044 E12.37001
G1 X128.396 Y142.14 E12.41331
G1 X127.922 Y142.157 E12.4354
G1 X127.082 Y142.168 E12.47451
G1 X111.01 Y142.167 E13.22289
G1 X110.292 Y142.156 E13.25633
G1 X109.355 Y142.1 E13.30004
G1 X108.427 Y141.961 E13.34373
G1 X107.513 Y141.74 E13.38752
G1 X106.657 Y141.452 E13.42957
G1 X105.766 Y141.062 E13.47486
G1 X104.943 Y140.609 E13.51861
G1 X104.165 Y140.085 E13.56228
G1 X103.436 Y139.495 E13.60595
G1 X102.761 Y138.843 E13.64965
G1 X102.146 Y138.133 E13.69339
G1 X101.602 Y137.38 E13.73665
G1 X100.994 Y136.38 E13.79114
G1 X92.877 Y122.323 E14.54698
G1 X92.547 Y121.733 E14.57846
G1 X92.126 Y120.894 E14.62217
G1 X91.793 Y120.055 E14.6642
G1 X91.516 Y119.121 E14.70956
G1 X91.331 Y118.201 E14.75326
G1 X91.227 Y117.267 E14.79702
G1 X91.207 Y116.33 E14.84066
G1 X91.27 Y115.393 E14.88439
G1 X91.415 Y114.466 E14.92808
G1 X91.642 Y113.555 E14.9718
G1 X91.949 Y112.668 E15.0155
G1 X92.316 Y111.843 E15.05755
G1 X92.549 Y111.402 E15.08077
G1 X92.965 Y110.659 E15.12042
G1 X101 Y96.745 E15.86859
G1 X101.364 Y96.136 E15.90163
G1 X101.88 Y95.354 E15.94525
G1 X102.465 Y94.619 E15.98899
G0 F6000 X102.755 Y94.894
G1 F1200 X103.377 Y94.239 E16.03105
G1 X104.054 Y93.641 E16.07312
G1 X104.781 Y93.105 E16.11517
G1 X105.552 Y92.636 E16.15719
G1 X106.363 Y92.237 E16.19928
G1 X107.205 Y91.911 E16.24132
G1 X108.073 Y91.661 E16.28339
G1 X108.959 Y91.489 E16.32541
G1 X109.858 Y91.396 E16.3675
G1 X110.312 Y91.379 E16.38865
G1 X111.15 Y91.368 E16.42767
G1 X127.067 Y91.368 E17.16884
G1 X127.913 Y91.379 E17.20823
G1 X128.815 Y91.432 E17.25031
G1 X129.708 Y91.564 E17.29234
G1 X130.587 Y91.775 E17.33443
G1 X131.443 Y92.063 E17.37649
G1 X132.27 Y92.425 E17.41852
G1 X133.062 Y92.859 E17.46058
G1 X133.812 Y93.362 E17.50263
G1 X134.515 Y93.929 E17.54468
G1 X135.165 Y94.555 E17.5867
G1 X135.758 Y95.237 E17.62879
G1 X136.526 Y96.349 E17.69171
G1 X136.886 Y96.952 E17.72442
G1 X145.01 Y111.024 E18.48102
G1 X145.333 Y111.604 E18.51194
G1 X145.737 Y112.412 E18.554
G1 X146.068 Y113.252 E18.59604
G1 X146.324 Y114.118 E18.63809
G1 X146.502 Y115.004 E18.68017
G1 X146.6 Y115.902 E18.72223
G1 X146.619 Y116.805 E18.76429
G1 X146.558 Y117.706 E18.80634
G1 X146.418 Y118.598 E18.84839
G1 X146.199 Y119.474 E18.89043
G1 X145.904 Y120.327 E18.93246
G1 X145.33 Y121.536 E18.99478
G1 X144.899 Y122.307 E19.03591
G1 X136.986 Y136.014 E19.77288
G1 X136.536 Y136.772 E19.81393
G1 X136.04 Y137.527 E19.85599
G1 X135.48 Y138.235 E19.89803
G1 X134.859 Y138.891 E19.94009
G1 X134.183 Y139.489 E19.98212
G1 X133.456 Y140.026 E20.0242
G1 X132.685 Y140.495 E20.06622
G1 X131.875 Y140.895 E20.10829
G1 X131.033 Y141.222 E20.15035
G1 X130.165 Y141.473 E20.19242
G1 X129.279 Y141.646 E20.23446
G1 X128.381 Y141.74 E20.2765
G1 X127.917 Y141.757 E20.29812
G1 X127.082 Y141.768 E20.337
G1 X111.016 Y141.767 E21.08511
G1 X110.315 Y141.757 E21.11775
G1 X109.413 Y141.704 E21.15982
G1 X108.52 Y141.572 E21.20186
G1 X107.641 Y141.361 E21.24395
G1 X106.785 Y141.073 E21.286
G1 X105.958 Y140.711 E21.32804
G1 X105.166 Y140.277 E21.37009
G1 X104.416 Y139.774 E21.41214
G1 X103.713 Y139.207 E21.4542
G1 X103.063 Y138.581 E21.49622
G1 X102.47 Y137.899 E21.5383
G1 X101.941 Y137.167 E21.58036
G1 X101.701 Y136.785 E21.60136
G1 X101.34 Y136.18 E21.63417
G1 X93.226 Y122.128 E22.38974
G1 X92.904 Y121.553 E22.42042
G1 X92.498 Y120.746 E22.46249
G1 X92.165 Y119.907 E22.50452
G1 X91.908 Y119.041 E22.54658
G1 X91.728 Y118.156 E22.58864
G1 X91.627 Y117.258 E22.63071
G1 X91.606 Y116.356 E22.67273
G1 X91.665 Y115.454 E22.71482
G1 X91.803 Y114.562 E22.75685
G1 X92.02 Y113.685 E22.79891
G1 X92.314 Y112.831 E22.84097
G1 X92.681 Y112.006 E22.88302
G1 X92.898 Y111.597 E22.90458
G1 X93.311 Y110.859 E22.94395
G1 X101.344 Y96.95 E23.69187
G1 X101.698 Y96.356 E23.72407
G1 X102.194 Y95.602 E23.76609
G1 X102.755 Y94.894 E23.80816
G1 F2700 E18.80816
;MESH:crayon v2.obj
G0 F6000 X111.508 Y104.179
G0 X111.886 Y129.088
;TYPE:WALL-INNER
G1 F2700 E23.80816
G1 F1200 X111.707 Y128.938 E23.81903
G1 X104.736 Y116.869 E24.46802
G1 X104.656 Y116.568 E24.48252
G1 X104.696 Y116.336 E24.49349
G1 X111.667 Y104.267 E25.14248
G1 X111.886 Y104.048 E25.1569
G1 X112.105 Y103.968 E25.16776
G1 X126.041 Y103.968 E25.81668
G1 X126.342 Y104.048 E25.83118
G1 X126.562 Y104.267 E25.84563
G1 X133.491 Y116.267 E26.49086
G1 X133.571 Y116.568 E26.50537
G1 X133.53 Y116.801 E26.51638
G1 X126.52 Y128.94 E27.1691
G1 X126.342 Y129.088 E27.17988
G1 X126.123 Y129.168 E27.19074
G1 X112.187 Y129.168 E27.83966
G1 X111.886 Y129.088 E27.85416
G1 F2700 E22.85416
G0 F6000 X111.793 Y130.787
G0 X110.802 Y130.967
G1 F2700 E27.85416
G1 F1200 X127.428 Y130.968 E28.62834
G1 X135.742 Y116.568 E29.40259
G1 X127.428 Y102.169 E30.17681
G1 X110.802 Y102.169 E30.95099
G1 X102.487 Y116.568 E31.72523
G1 X110.802 Y130.967 E32.49947
G0 F6000 X110.571 Y131.367
;TYPE:WALL-OUTER
G1 F1200 X127.659 Y131.368 E33.29516
G1 X136.204 Y116.568 E34.09093
G1 X127.659 Y101.769 E34.88665
G1 X110.571 Y101.769 E35.68234
G1 X102.025 Y116.568 E36.47809
G1 X110.571 Y131.367 E37.27384
G1 F2700 E32.27384
G0 F6000 X110.965 Y130.867
G0 X110.299 Y129.697
G0 X111.51 Y128.999
G0 X112.033 Y128.697
G1 F2700 E37.27384
G1 F1200 X105.082 Y116.669 E37.92072
G1 X105.068 Y116.499 E37.92866
G1 X112.013 Y104.467 E38.57555
G1 X112.152 Y104.37 E38.58344
G1 X126.116 Y104.368 E39.23367
G1 X126.215 Y104.467 E39.24019
G1 X133.145 Y116.467 E39.88544
G1 X133.159 Y116.637 E39.89338
G1 X126.195 Y128.697 E40.54185
G1 X126.076 Y128.766 E40.54825
G1 X112.187 Y128.768 E41.19498
G1 X112.033 Y128.697 E41.20288
G1 F2700 E36.20288
G0 F6000 X111.596 Y128.949
G0 X111.795 Y129.244
G0 X111.793 Y130.787
G0 X111.011 Y130.607
;TYPE:SKIN
G1 F2700 E41.20288
G1 F1200 X102.904 Y116.568 E41.95776
G1 X111.011 Y102.53 E42.7126
G1 X127.22 Y102.529 E43.46736
G1 X135.325 Y116.569 E44.22224
G1 X127.221 Y130.607 E44.97701
G1 X111.011 Y130.607 E45.73181
G0 F6000 X111.009 Y130.867
G0 X110.299 Y129.697
G0 X111.51 Y128.999
G0 X111.718 Y129.41
G1 F1200 X112.142 Y129.522 E45.75223
G1 X126.174 Y129.526 E46.40562
G1 X126.526 Y129.4 E46.42303
G1 X126.803 Y129.168 E46.43986
G1 X133.873 Y116.932 E47.09789
G1 X133.934 Y116.552 E47.11581
G1 X133.801 Y116.081 E47.1386
G1 X126.86 Y104.064 E47.78479
G1 X126.528 Y103.732 E47.80666
G1 X126.087 Y103.614 E47.82791
G1 X112.054 Y103.61 E48.48135
G1 X111.689 Y103.744 E48.49945
G1 X111.353 Y104.089 E48.52188
G1 X104.355 Y116.206 E49.17343
G1 X104.29 Y116.573 E49.19079
G1 X104.426 Y117.055 E49.21411
G1 X111.422 Y129.161 E49.86517
G1 X111.718 Y129.41 E49.88318
G0 F6000 X111.596 Y128.949
G0 X111.795 Y129.244
G0 X111.793 Y130.787
G0 X111.172 Y130.406
G1 F1200 X111.061 Y130.295 E49.89049
G0 F6000 X111.738 Y130.406
G1 F1200 X110.288 Y128.956 E49.98598
G0 F6000 X110.592 Y128.128
G1 F1200 X108.743 Y126.279 E50.10774
G0 F6000 X109.045 Y125.449
G1 F1200 X107.196 Y123.601 E50.22947
G0 F6000 X107.497 Y122.771
G1 F1200 X105.65 Y120.924 E50.35109
G0 F6000 X105.95 Y120.092
G1 F1200 X104.104 Y118.246 E50.47266
G0 F6000 X104.402 Y117.413
G1 F1200 X103.289 Y116.299 E50.54598
G0 F6000 X103.496 Y115.941
G1 F1200 X104.092 Y116.537 E50.58523
G0 F6000 X104.198 Y116.077
G1 F1200 X103.702 Y115.582 E50.61786
G0 F6000 X103.91 Y115.223
G1 F1200 X104.405 Y115.719 E50.65049
G0 F6000 X104.612 Y115.36
G1 F1200 X104.117 Y114.865 E50.68309
G0 F6000 X104.324 Y114.506
G1 F1200 X104.82 Y115.002 E50.71575
G0 F6000 X105.027 Y114.643
G1 F1200 X104.531 Y114.148 E50.74838
G0 F6000 X104.738 Y113.789
G1 F1200 X105.234 Y114.285 E50.78104
G0 F6000 X105.441 Y113.926
G1 F1200 X104.945 Y113.431 E50.81367
G0 F6000 X105.152 Y113.072
G1 F1200 X105.648 Y113.568 E50.84633
G0 F6000 X105.855 Y113.209
G1 F1200 X105.359 Y112.713 E50.87899
G0 F6000 X105.566 Y112.355
G1 F1200 X106.062 Y112.85 E50.91162
G0 F6000 X106.269 Y112.492
G1 F1200 X105.773 Y111.996 E50.94429
G0 F6000 X105.981 Y111.638
G1 F1200 X106.476 Y112.133 E50.97688
G0 F6000 X106.684 Y111.775
G1 F1200 X106.188 Y111.279 E51.00955
G0 F6000 X106.395 Y110.921
G1 F1200 X106.891 Y111.416 E51.04217
G0 F6000 X107.098 Y111.058
G1 F1200 X106.602 Y110.561 E51.07487
G0 F6000 X106.809 Y110.203
G1 F1200 X107.305 Y110.699 E51.10753
G0 F6000 X107.512 Y110.34
G1 F1200 X107.016 Y109.844 E51.1402
G0 F6000 X107.223 Y109.486
G1 F1200 X107.719 Y109.981 E51.17282
G0 F6000 X107.926 Y109.623
G1 F1200 X107.43 Y109.127 E51.20549
G0 F6000 X107.637 Y108.769
G1 F1200 X108.133 Y109.264 E51.23812
G0 F6000 X108.34 Y108.906
G1 F1200 X107.845 Y108.41 E51.27075
G0 F6000 X108.051 Y108.051
G1 F1200 X108.547 Y108.547 E51.30341
G0 F6000 X108.755 Y108.189
G1 F1200 X108.258 Y107.693 E51.3361
G0 F6000 X108.465 Y107.334
G1 F1200 X108.962 Y107.83 E51.3688
G0 F6000 X109.168 Y107.471
G1 F1200 X108.673 Y106.976 E51.4014
G0 F6000 X108.88 Y106.617
G1 F1200 X109.375 Y107.113 E51.43403
G0 F6000 X109.583 Y106.754
G1 F1200 X109.087 Y106.259 E51.46666
G0 F6000 X109.294 Y105.9
G1 F1200 X109.79 Y106.396 E51.49932
G0 F6000 X109.997 Y106.037
G1 F1200 X109.501 Y105.541 E51.53198
G0 F6000 X109.708 Y105.182
G1 F1200 X110.204 Y105.679 E51.56468
G0 F6000 X110.411 Y105.32
G1 F1200 X109.915 Y104.824 E51.59734
G0 F6000 X110.122 Y104.465
G1 F1200 X110.618 Y104.961 E51.63
G0 F6000 X110.825 Y104.603
G1 F1200 X110.329 Y104.107 E51.66266
G0 F6000 X110.537 Y103.748
G1 F1200 X111.032 Y104.244 E51.69529
G0 F6000 X111.251 Y103.898
G1 F1200 X110.744 Y103.39 E51.72871
G0 F6000 X110.95 Y103.031
G1 F1200 X111.534 Y103.615 E51.76717
G0 F6000 X111.925 Y103.44
G1 F1200 X111.215 Y102.73 E51.81392
G0 F6000 X111.781 Y102.73
G1 F1200 X112.463 Y103.412 E51.85883
G0 F6000 X113.028 Y103.412
G1 F1200 X112.347 Y102.73 E51.90371
G0 F6000 X112.912 Y102.73
G1 F1200 X113.594 Y103.412 E51.94862
G0 F6000 X114.159 Y103.411
G1 F1200 X113.478 Y102.73 E51.99347
G0 F6000 X114.044 Y102.73
G1 F1200 X114.725 Y103.411 E52.03831
G0 F6000 X115.29 Y103.411
G1 F1200 X114.609 Y102.73 E52.08316
G0 F6000 X115.175 Y102.73
G1 F1200 X115.856 Y103.411 E52.128
G0 F6000 X116.421 Y103.41
G1 F1200 X115.741 Y102.73 E52.17278
G0 F6000 X116.307 Y102.73
G1 F1200 X116.987 Y103.41 E52.21756
G0 F6000 X117.552 Y103.41
G1 F1200 X116.872 Y102.73 E52.26234
G0 F6000 X117.438 Y102.73
G1 F1200 X118.117 Y103.41 E52.30709
G0 F6000 X118.683 Y103.41
G1 F1200 X118.004 Y102.73 E52.35183
G0 F6000 X118.569 Y102.73
G1 F1200 X119.249 Y103.41 E52.39661
G0 F6000 X119.815 Y103.41
G1 F1200 X119.134 Y102.729 E52.44146
G0 F6000 X119.7 Y102.729
G1 F1200 X120.379 Y103.409 E52.4862
G0 F6000 X120.945 Y103.409
G1 F1200 X120.266 Y102.729 E52.53095
G0 F6000 X120.831 Y102.729
G1 F1200 X121.511 Y103.409 E52.57573
G0 F6000 X122.076 Y103.408
G1 F1200 X121.397 Y102.729 E52.62044
G0 F6000 X121.963 Y102.729
G1 F1200 X122.642 Y103.408 E52.66516
G0 F6000 X123.207 Y103.408
G1 F1200 X122.528 Y102.729 E52.70987
G0 F6000 X123.094 Y102.729
G1 F1200 X123.773 Y103.408 E52.75458
G0 F6000 X124.338 Y103.408
G1 F1200 X123.66 Y102.729 E52.79926
G0 F6000 X124.225 Y102.729
G1 F1200 X124.904 Y103.408 E52.84398
G0 F6000 X125.469 Y103.408
G1 F1200 X124.791 Y102.729 E52.88866
G0 F6000 X125.357 Y102.729
G1 F1200 X126.035 Y103.408 E52.93334
G0 F6000 X125.922 Y102.729
G1 F1200 X128.716 Y105.523 E53.11733
G0 F6000 X128.405 Y106.343
